app/src/main/assets/symbols/place_of_worship/taoist.svg

<?xml version="1.0" encoding="UTF-8" standalone="no"?>
<svg
   xmlns:dc="http://purl.org/dc/elements/1.1/"
   xmlns:cc="http://creativecommons.org/ns#"
   xmlns:rdf="http://www.w3.org/1999/02/22-rdf-syntax-ns#"
   xmlns:svg="http://www.w3.org/2000/svg"
   xmlns="http://www.w3.org/2000/svg"
   version="1.1"
   width="16"
   height="16"
   viewBox="0 0 16 16"
   id="svg2">
  <metadata id="metadata8">
    <rdf:RDF>
      <cc:Work rdf:about="">
        <dc:format>image/svg+xml</dc:format>
        <dc:type rdf:resource="http://purl.org/dc/dcmitype/StillImage"/>
        <dc:title/>
      </cc:Work>
    </rdf:RDF>
  </metadata>
  <defs id="defs6"/>
  <rect width="16" height="16" x="0" y="0" id="canvas" style="fill:none;stroke:none;visibility:hidden"/>
  <path d="m 7,14 c 3.858078,0 7,-3.169117 7,-7 C 14,3.169117 10.877274,0 7,0 3.122726,0 0,3.13993 0,7 c 0,3.860071 3.141922,7 7,7 z M 7,13 C 3.680369,13 1,10.319631 1,7 1,3.680369 3.680369,1 7,1 10,1 11,6.4793944 7,7 3,7.520606 4.084746,13 7,13 z M 7,11 C 6.447715,11 6,10.552284 6,10 6,9.447716 6.447715,9 7,9 7.552285,9 8,9.447716 8,10 8,10.552284 7.552285,11 7,11 z M 7,5 C 7.552285,5 8,4.552285 8,4 8,3.447715 7.552285,3 7,3 6.447715,3 6,3.447715 6,4 6,4.552285 6.447715,5 7,5 z" id="taoist" style="fill:#000000;fill-opacity:1;stroke:none" transform="translate(1,1)"/>
</svg>

<?xml version="1.0" encoding="UTF-8"?>
<svg version="1.1" viewBox="0 0 16 16" xmlns="http://www.w3.org/2000/svg" xmlns:cc="http://creativecommons.org/ns#" xmlns:dc="http://purl.org/dc/elements/1.1/" xmlns:rdf="http://www.w3.org/1999/02/22-rdf-syntax-ns#">
<metadata>
<rdf:RDF>
<cc:Work rdf:about="">
<dc:format>image/svg+xml</dc:format>
<dc:type rdf:resource="http://purl.org/dc/dcmitype/StillImage"/>
<dc:title/>
</cc:Work>
</rdf:RDF>
</metadata>
<rect width="16" height="16" fill="none" visibility="hidden"/>
<path transform="translate(1,1)" d="m7 14c3.8581 0 7-3.1691 7-7s-3.1227-7-7-7-7 3.1399-7 7c0 3.8601 3.1419 7 7 7zm0-1c-3.3196 0-6-2.6804-6-6s2.6804-6 6-6c3 0 4 5.4794 0 6-4 0.52061-2.9153 6 0 6zm0-2c-0.55228 0-1-0.44772-1-1s0.44772-1 1-1 1 0.44772 1 1-0.44772 1-1 1zm0-6c0.55228 0 1-0.44772 1-1s-0.44772-1-1-1-1 0.44772-1 1 0.44772 1 1 1z"/>
</svg>
